src/images/svg/be-square/quant-analysis.svg

<svg width="48" height="48" viewBox="0 0 48 48" fill="none" xmlns="http://www.w3.org/2000/svg">
<path d="M32.7099 21.0414C32.8948 21.0414 33.0763 21.1159 33.207 21.2467C33.3384 21.3782 33.413 21.5596 33.413 21.7445C33.413 21.9294 33.3384 22.1101 33.207 22.2416C33.0763 22.3723 32.8948 22.4469 32.7099 22.4469C32.525 22.4469 32.3436 22.3723 32.2128 22.2416C32.082 22.1108 32.0068 21.9294 32.0068 21.7445C32.0068 21.5589 32.082 21.3782 32.2128 21.2467C32.3443 21.116 32.525 21.0414 32.7099 21.0414Z" fill="#FF444F"/>
<path fill-rule="evenodd" clip-rule="evenodd" d="M26.3208 9.72655C19.7302 9.72655 14.3683 15.0884 14.3683 21.6791C14.3683 28.2697 19.7302 33.6316 26.3208 33.6316C32.9114 33.6316 38.2733 28.2697 38.2733 21.6791C38.2733 15.0884 32.9114 9.72655 26.3208 9.72655ZM26.3208 11.1327C29.5663 11.1327 32.4737 12.6068 34.4099 14.9201L33.6367 15.6933C33.3613 15.5613 33.0531 15.4872 32.7279 15.4872C31.5648 15.4872 30.6186 16.4334 30.6186 17.5964C30.6186 17.8687 30.6711 18.1288 30.7655 18.368L26.6837 22.0265C26.458 21.9439 26.2144 21.8987 25.9605 21.8987C25.4614 21.8987 25.0025 22.0734 24.6408 22.3643L21.3043 20.1701C21.3143 20.0869 21.3201 20.0025 21.3201 19.9167C21.3201 18.7536 20.3739 17.8074 19.2108 17.8074C18.0478 17.8074 17.1016 18.7536 17.1016 19.9167C17.1016 20.1081 17.1277 20.2933 17.1756 20.4697L15.7777 21.4368C15.9067 15.733 20.5864 11.1327 26.3208 11.1327ZM33.4309 17.5965C33.4309 17.9842 33.1155 18.2996 32.7278 18.2996C32.3401 18.2996 32.0248 17.9841 32.0248 17.5965C32.0248 17.2088 32.3402 16.8934 32.7278 16.8934C33.1155 16.8934 33.4309 17.2088 33.4309 17.5965ZM18.5076 28.7553C17.1072 27.2106 16.1579 25.2502 15.8682 23.0839L17.9763 21.6256C18.1378 21.7426 18.3163 21.8373 18.5076 21.905V28.7553ZM19.2106 20.6198C18.8229 20.6198 18.5075 20.3044 18.5075 19.9167C18.5075 19.529 18.8229 19.2136 19.2106 19.2136C19.5983 19.2136 19.9137 19.529 19.9137 19.9167C19.9138 20.3045 19.5983 20.6198 19.2106 20.6198ZM25.2572 32.172C23.2601 31.9711 21.4261 31.2103 19.9138 30.05V21.9051C20.1994 21.8039 20.4566 21.6426 20.6708 21.4367L23.8994 23.56C23.868 23.7045 23.8511 23.8543 23.8511 24.0081C23.8511 24.9246 24.4389 25.7062 25.2572 25.9965V32.172ZM25.9603 24.7112C25.5726 24.7112 25.2572 24.3958 25.2572 24.0081C25.2572 23.6204 25.5727 23.305 25.9603 23.305C26.3479 23.305 26.6633 23.6205 26.6633 24.0081C26.6634 24.3959 26.348 24.7112 25.9603 24.7112ZM33.4131 29.4779V24.6067C33.4131 24.2185 33.0982 23.9037 32.71 23.9037C32.3218 23.9037 32.007 24.2185 32.007 24.6067V30.5576C30.4552 31.5549 28.6262 32.1562 26.6635 32.2192V25.9965C27.4818 25.7062 28.0697 24.9248 28.0697 24.0081C28.0697 23.6169 27.9622 23.2505 27.7758 22.936L31.6873 19.4301C31.9947 19.6052 32.3496 19.7058 32.7279 19.7058C33.8909 19.7058 34.8371 18.7596 34.8371 17.5966C34.8371 17.2714 34.763 16.9632 34.631 16.6878L35.2482 16.0706C36.2731 17.6962 36.8672 19.6194 36.8672 21.6791C36.8671 24.766 35.5339 27.5474 33.4131 29.4779Z" fill="#FF444F"/>
<path fill-rule="evenodd" clip-rule="evenodd" d="M41.7941 8.52999C42.0686 8.80456 42.0686 9.24978 41.7941 9.52435L38.944 12.3743C40.9275 15.0535 41.9995 18.2837 41.9995 21.6789C41.9995 25.867 40.3687 29.8043 37.4074 32.7656C34.446 35.727 30.5087 37.3578 26.3206 37.3578C23.1637 37.3578 20.1495 36.4307 17.5882 34.7061L11.1716 41.1226C10.5868 41.7074 9.8177 41.9995 9.04672 41.9995C8.26815 41.9996 7.48768 41.7018 6.89269 41.1069C5.70863 39.9229 5.70153 38.0033 6.87701 36.8279L8.2133 35.4916C8.48809 35.2171 8.93309 35.2172 9.20767 35.4916C9.48224 35.7663 9.48224 36.2114 9.20767 36.486L7.87137 37.8222C7.24426 38.4493 7.25143 39.4767 7.88726 40.1125C8.5231 40.7484 9.55044 40.7555 10.1775 40.1283L16.4466 33.8593C16.0269 33.5178 15.622 33.1535 15.2342 32.7656C14.8463 32.3778 14.482 31.9729 14.1404 31.5532L13.0971 32.5965C12.9598 32.7338 12.7799 32.8025 12.6 32.8025C12.42 32.8025 12.2401 32.7338 12.1028 32.5965C11.8282 32.3219 11.8282 31.8767 12.1028 31.6022L13.2936 30.4114C12.425 29.1213 11.7585 27.7166 11.3111 26.2365L7.10454 29.1466C6.98241 29.231 6.84305 29.2715 6.7051 29.2715C6.48214 29.2715 6.26276 29.1656 6.12628 28.9683C5.90529 28.649 5.9851 28.2111 6.30446 27.9901L10.9464 24.7789C10.745 23.7691 10.6417 22.7319 10.6417 21.6789C10.6417 17.4908 12.2725 13.5535 15.234 10.5922C18.1952 7.63083 22.1325 6 26.3206 6C30.5087 6 34.4461 7.63083 37.4074 10.5923C37.6301 10.815 37.8445 11.044 38.0521 11.2776L40.7997 8.52999C41.0744 8.25549 41.5194 8.25549 41.7941 8.52999ZM26.3206 35.9516C34.1907 35.9516 40.5933 29.549 40.5933 21.6789C40.5933 13.8089 34.1907 7.40625 26.3206 7.40625C18.4506 7.40625 12.0479 13.8089 12.0479 21.6789C12.0479 29.549 18.4506 35.9516 26.3206 35.9516Z" fill="#FF444F"/>
<path d="M10.7142 33.2823C10.8991 33.2823 11.0806 33.3576 11.2113 33.4883C11.3421 33.619 11.4173 33.8005 11.4173 33.9854C11.4173 34.1704 11.342 34.3518 11.2113 34.4825C11.0806 34.6133 10.8991 34.6886 10.7142 34.6886C10.5286 34.6886 10.3478 34.6133 10.2171 34.4825C10.0863 34.3518 10.0111 34.1704 10.0111 33.9854C10.0111 33.8005 10.0863 33.619 10.2171 33.4883C10.3478 33.3575 10.5285 33.2823 10.7142 33.2823Z" fill="#FF444F"/>
</svg>

<svg xmlns="http://www.w3.org/2000/svg" width="48" height="48" fill="#ff444f"  xmlns:v="https://vecta.io/nano"><path d="M32.71 21.041a.71.71 0 0 1 .703.703c0 .185-.075.366-.206.497a.71.71 0 0 1-.497.205.71.71 0 0 1-.703-.702.71.71 0 0 1 .703-.703z"/><path d="M26.321 9.727A11.97 11.97 0 0 0 14.369 21.68a11.97 11.97 0 0 0 11.952 11.953 11.97 11.97 0 0 0 11.953-11.952A11.97 11.97 0 0 0 26.321 9.727zm0 1.406c3.246 0 6.153 1.474 8.089 3.787l-.773.773c-.275-.132-.584-.206-.909-.206a2.11 2.11 0 0 0-2.109 2.109 2.09 2.09 0 0 0 .147.772l-4.082 3.659a2.1 2.1 0 0 0-2.043.338l-3.336-2.194a2.12 2.12 0 0 0 .016-.253 2.11 2.11 0 0 0-2.109-2.109 2.11 2.11 0 0 0-2.109 2.109 2.1 2.1 0 0 0 .074.553l-1.398.967a10.56 10.56 0 0 1 10.543-10.304zm7.11 6.464c0 .388-.315.703-.703.703s-.703-.316-.703-.703.315-.703.703-.703.703.315.703.703zM18.508 28.755a10.51 10.51 0 0 1-2.639-5.671l2.108-1.458a2.1 2.1 0 0 0 .531.279v6.85zm.703-8.135c-.388 0-.703-.315-.703-.703s.315-.703.703-.703.703.315.703.703-.315.703-.703.703zm6.047 11.552a10.49 10.49 0 0 1-5.343-2.122v-8.145a2.11 2.11 0 0 0 .757-.468l3.229 2.123a2.11 2.11 0 0 0-.048.448c0 .917.588 1.698 1.406 1.988v6.175zm.703-7.461c-.388 0-.703-.315-.703-.703s.316-.703.703-.703.703.316.703.703-.315.703-.703.703zm7.453 4.767v-4.871c0-.388-.315-.703-.703-.703s-.703.315-.703.703v5.951a10.48 10.48 0 0 1-5.343 1.662v-6.223c.818-.29 1.406-1.072 1.406-1.988a2.1 2.1 0 0 0-.294-1.072l3.912-3.506c.307.175.662.276 1.041.276a2.11 2.11 0 0 0 2.109-2.109 2.1 2.1 0 0 0-.206-.909l.617-.617c1.025 1.626 1.619 3.549 1.619 5.608 0 3.087-1.333 5.868-3.454 7.799zm8.38-20.948a.7.7 0 0 1 0 .994l-2.85 2.85c1.984 2.68 3.056 5.91 3.056 9.305a15.58 15.58 0 0 1-4.592 11.087 15.57 15.57 0 0 1-11.087 4.592c-3.157 0-6.171-.927-8.732-2.652l-6.417 6.416c-.585.585-1.354.877-2.125.877a3.04 3.04 0 0 1-2.154-.893 3.03 3.03 0 0 1-.016-4.279l1.336-1.336c.275-.274.72-.274.994 0s.275.72 0 .994l-1.336 1.336c-.627.627-.62 1.654.016 2.29s1.663.643 2.29.016l6.269-6.269a15.93 15.93 0 0 1-1.212-1.094 16.19 16.19 0 0 1-1.094-1.212l-1.043 1.043a.7.7 0 1 1-.994-.994l1.191-1.191a15.5 15.5 0 0 1-1.982-4.175l-4.207 2.91a.7.7 0 0 1-.978-.178c-.221-.319-.141-.757.178-.978l4.642-3.211a15.84 15.84 0 0 1-.305-3.1 15.58 15.58 0 0 1 4.592-11.087A15.57 15.57 0 0 1 26.321 6c4.188 0 8.126 1.631 11.087 4.592.223.223.437.452.645.685L40.8 8.53c.275-.274.72-.274.994 0zM26.321 35.952c7.87 0 14.273-6.403 14.273-14.273S34.191 7.406 26.321 7.406s-14.273 6.403-14.273 14.273 6.403 14.273 14.273 14.273z" fill-rule="evenodd"/><path d="M10.714 33.282a.71.71 0 0 1 .703.703.71.71 0 0 1-.703.703c-.186 0-.366-.075-.497-.206a.71.71 0 0 1-.206-.497.71.71 0 0 1 .206-.497c.131-.131.311-.206.497-.206z"/></svg>
